X:214
T: MORGEN MUSS ICH FORT VON HIER
N: E0791A
O: Europa, Mitteleuropa, Deutschland
R: Abschieds - Lied, Liebe
M: 3/4
L: 1/16
K: F
 | c6A2d2c2 | c3BA4z4 |
G2A2B2d2c2B2 | B4A4z4 |
c6A2d2c2 | c3BA4z4 |
G2c2e2d2c2=B2 | d4c4z4 |
B6A2G2F2 | E3FG4z4 |
d6c2B2A2 | G3AG4z4 |
c6A2B2c2 | d2e2g2f2e2d2 |
c6BAB2G2 | G4A4z4

@@@ Tune index: 4527
